src/Icon/svgs/VideoOutline.svg

<svg width="24" height="24" viewBox="0 0 24 24" fill="none" xmlns="http://www.w3.org/2000/svg">
<path d="M15.5 12L10 9V15L15.5 12Z" fill="#1B1C1D"/>
<path fill-rule="evenodd" clip-rule="evenodd" d="M3 3C1.89543 3 1 3.89543 1 5V19C1 20.1046 1.89543 21 3 21H21C22.1046 21 23 20.1046 23 19V5C23 3.89543 22.1046 3 21 3H3ZM3 19H21V5H3V19Z" fill="#1B1C1D"/>
</svg>

<svg xmlns="http://www.w3.org/2000/svg" width="24" height="24" fill="#1B1C1D"><path d="M15.5 12L10 9v6l5.5-3z"/><path fill-rule="evenodd" d="M3 3a2 2 0 0 0-2 2v14a2 2 0 0 0 2 2h18a2 2 0 0 0 2-2V5a2 2 0 0 0-2-2H3zm0 16h18V5H3v14z"/></svg>
